X:437
T: Danianzi qileshou
N: C2055
O: China, Anhui Fengyang
R: Xiaodiao]
M: 2/4
L: 1/16
K: C
E2G2c2A2 | G6A2 | E2G2c2A2 | G8
G2G2E2G2 | A2G4A2 | A2c2e2d2 | c8
G2G2E2G2 | A2G4A2 | A2c2e2d2 | c8
c2d2e4 | d2e2B2A2 | G2A2d2B2 | d2B2A2A2 | G8

